Newaita-dark/apps/22/otter-browser.svg

<?xml version="1.0" encoding="UTF-8"?>
<svg xmlns="http://www.w3.org/2000/svg" xmlns:xlink="http://www.w3.org/1999/xlink" width="22pt" height="22pt" viewBox="0 0 22 22" version="1.1">
<defs>
<radialGradient id="radial0" gradientUnits="userSpaceOnUse" cx="450.908936" cy="189.579361" fx="450.908936" fy="189.579361" r="21.166656" gradientTransform="matrix(0.000000119742,-0.0537161,-0.0966889,-0.0000000698078,30.609667,43.721789)">
<stop offset="0" style="stop-color:rgb(0%,0%,0%);stop-opacity:0.313725;"/>
<stop offset="0.222222" style="stop-color:rgb(0%,0%,0%);stop-opacity:0.27451;"/>
<stop offset="1" style="stop-color:rgb(0%,0%,0%);stop-opacity:0;"/>
</radialGradient>
<radialGradient id="radial1" gradientUnits="userSpaceOnUse" cx="450.908936" cy="189.579361" fx="450.908936" fy="189.579361" r="21.166656" gradientTransform="matrix(-0.000000119742,0.0537161,0.0966889,0.0000000698078,-8.779457,-5.175144)">
<stop offset="0" style="stop-color:rgb(0%,0%,0%);stop-opacity:0.313725;"/>
<stop offset="0.222222" style="stop-color:rgb(0%,0%,0%);stop-opacity:0.27451;"/>
<stop offset="1" style="stop-color:rgb(0%,0%,0%);stop-opacity:0;"/>
</radialGradient>
<radialGradient id="radial2" gradientUnits="userSpaceOnUse" cx="450.908936" cy="189.579361" fx="450.908936" fy="189.579361" r="21.166656" gradientTransform="matrix(-0.000000119742,-0.0537161,0.0966889,-0.0000000698078,-8.779457,43.721789)">
<stop offset="0" style="stop-color:rgb(0%,0%,0%);stop-opacity:0.313725;"/>
<stop offset="0.222222" style="stop-color:rgb(0%,0%,0%);stop-opacity:0.27451;"/>
<stop offset="1" style="stop-color:rgb(0%,0%,0%);stop-opacity:0;"/>
</radialGradient>
<radialGradient id="radial3" gradientUnits="userSpaceOnUse" cx="450.908936" cy="189.579361" fx="450.908936" fy="189.579361" r="21.166656" gradientTransform="matrix(0.000000119742,0.0537161,-0.0966889,0.0000000698078,30.609666,-5.175144)">
<stop offset="0" style="stop-color:rgb(0%,0%,0%);stop-opacity:0.313725;"/>
<stop offset="0.222222" style="stop-color:rgb(0%,0%,0%);stop-opacity:0.27451;"/>
<stop offset="1" style="stop-color:rgb(0%,0%,0%);stop-opacity:0;"/>
</radialGradient>
<linearGradient id="linear0" gradientUnits="userSpaceOnUse" x1="255.323059" y1="233.5" x2="255.323044" y2="254.666656" gradientTransform="matrix(0.00918504,0,0,0.0429729,8.569953,9.239164)">
<stop offset="0" style="stop-color:rgb(0%,0%,0%);stop-opacity:0.27451;"/>
<stop offset="1" style="stop-color:rgb(0%,0%,0%);stop-opacity:0;"/>
</linearGradient>
<linearGradient id="linear1" gradientUnits="userSpaceOnUse" x1="960" y1="1695.118164" x2="960" y2="175.118118" gradientTransform="matrix(0.0113699,0,0,0.0113699,0,0)">
<stop offset="0" style="stop-color:rgb(11.764706%,53.333333%,89.803922%);stop-opacity:1;"/>
<stop offset="1" style="stop-color:rgb(12.941176%,58.823529%,95.294118%);stop-opacity:1;"/>
</linearGradient>
</defs>
<g id="surface1">
<path style=" stroke:none;fill-rule:nonzero;fill:url(#radial0);" d="M 12.507812 19.273438 L 14.324219 19.273438 L 14.324219 18.363281 L 12.507812 18.363281 Z M 12.507812 19.273438 "/>
<path style=" stroke:none;fill-rule:nonzero;fill:url(#radial1);" d="M 9.324219 19.273438 L 7.503906 19.273438 L 7.503906 20.183594 L 9.324219 20.183594 Z M 9.324219 19.273438 "/>
<path style=" stroke:none;fill-rule:nonzero;fill:url(#radial2);" d="M 9.324219 19.273438 L 7.503906 19.273438 L 7.503906 18.363281 L 9.324219 18.363281 Z M 9.324219 19.273438 "/>
<path style=" stroke:none;fill-rule:nonzero;fill:url(#radial3);" d="M 12.507812 19.273438 L 14.324219 19.273438 L 14.324219 20.183594 L 12.507812 20.183594 Z M 12.507812 19.273438 "/>
<path style=" stroke:none;fill-rule:nonzero;fill:url(#linear0);" d="M 9.324219 19.046875 L 12.507812 19.046875 L 12.507812 20.183594 L 9.324219 20.183594 Z M 9.324219 19.046875 "/>
<path style=" stroke:none;fill-rule:nonzero;fill:url(#linear1);" d="M 10.914062 1.992188 C 6.882812 1.992188 3.636719 5.84375 3.636719 10.632812 C 3.636719 15.417969 6.882812 19.273438 10.914062 19.273438 C 14.945312 19.273438 18.191406 15.417969 18.191406 10.632812 C 18.191406 5.84375 14.945312 1.992188 10.914062 1.992188 Z M 10.914062 3.808594 C 12.929688 3.808594 14.554688 6.851562 14.554688 10.632812 C 14.554688 14.410156 12.929688 17.453125 10.914062 17.453125 C 8.898438 17.453125 7.277344 14.410156 7.277344 10.632812 C 7.277344 6.851562 8.898438 3.808594 10.914062 3.808594 Z M 10.914062 3.808594 "/>
<path style=" stroke:none;fill-rule:nonzero;fill:rgb(0%,0%,0%);fill-opacity:0.196078;" d="M 10.914062 3.621094 C 8.898438 3.621094 7.277344 6.664062 7.277344 10.441406 C 7.277344 10.472656 7.277344 10.503906 7.277344 10.535156 C 7.304688 6.800781 8.917969 3.808594 10.914062 3.808594 C 12.914062 3.808594 14.527344 6.800781 14.554688 10.535156 C 14.554688 10.503906 14.554688 10.472656 14.554688 10.441406 C 14.554688 6.664062 12.929688 3.621094 10.914062 3.621094 Z M 3.640625 10.535156 C 3.636719 10.570312 3.636719 10.601562 3.636719 10.632812 C 3.636719 15.417969 6.882812 19.273438 10.914062 19.273438 C 14.945312 19.273438 18.191406 15.417969 18.191406 10.632812 C 18.191406 10.601562 18.191406 10.570312 18.191406 10.535156 C 18.148438 15.28125 14.917969 19.082031 10.914062 19.082031 C 6.910156 19.082031 3.679688 15.28125 3.640625 10.535156 Z M 3.640625 10.535156 "/>
<path style=" stroke:none;fill-rule:nonzero;fill:rgb(100%,100%,100%);fill-opacity:0.392157;" d="M 10.914062 1.992188 C 6.882812 1.992188 3.636719 5.84375 3.636719 10.632812 C 3.636719 10.671875 3.636719 10.707031 3.640625 10.746094 C 3.691406 6.011719 6.914062 2.21875 10.914062 2.21875 C 14.914062 2.21875 18.140625 6.011719 18.191406 10.746094 C 18.191406 10.707031 18.191406 10.671875 18.191406 10.632812 C 18.191406 5.84375 14.945312 1.992188 10.914062 1.992188 Z M 7.277344 10.746094 C 7.277344 10.785156 7.277344 10.820312 7.277344 10.859375 C 7.277344 14.640625 8.898438 17.679688 10.914062 17.679688 C 12.929688 17.679688 14.554688 14.640625 14.554688 10.859375 C 14.554688 10.820312 14.554688 10.785156 14.554688 10.746094 C 14.519531 14.472656 12.910156 17.453125 10.914062 17.453125 C 8.917969 17.453125 7.308594 14.472656 7.277344 10.746094 Z M 7.277344 10.746094 "/>
<path style=" stroke:none;fill-rule:nonzero;fill:rgb(12.941177%,12.941177%,12.941177%);fill-opacity:1;" d="M 10.914062 1.925781 C 6.84375 1.925781 3.574219 5.816406 3.574219 10.632812 C 3.574219 15.449219 6.84375 19.335938 10.914062 19.335938 C 14.988281 19.335938 18.257812 15.449219 18.257812 10.632812 C 18.257812 5.816406 14.988281 1.925781 10.914062 1.925781 Z M 10.914062 2.054688 C 14.90625 2.054688 18.128906 5.875 18.128906 10.632812 C 18.128906 15.390625 14.90625 19.207031 10.914062 19.207031 C 6.925781 19.207031 3.703125 15.390625 3.703125 10.632812 C 3.703125 5.875 6.925781 2.054688 10.914062 2.054688 Z M 10.914062 3.746094 C 9.875 3.746094 8.945312 4.527344 8.28125 5.773438 C 7.617188 7.019531 7.210938 8.734375 7.210938 10.632812 C 7.210938 12.53125 7.617188 14.246094 8.28125 15.492188 C 8.945312 16.734375 9.875 17.519531 10.914062 17.519531 C 11.957031 17.519531 12.882812 16.734375 13.546875 15.492188 C 14.210938 14.246094 14.617188 12.53125 14.617188 10.632812 C 14.617188 8.734375 14.210938 7.019531 13.546875 5.773438 C 12.882812 4.527344 11.957031 3.746094 10.914062 3.746094 Z M 10.914062 3.875 C 11.890625 3.875 12.78125 4.613281 13.433594 5.835938 C 14.085938 7.054688 14.488281 8.75 14.488281 10.632812 C 14.488281 12.511719 14.085938 14.210938 13.433594 15.429688 C 12.78125 16.652344 11.890625 17.390625 10.914062 17.390625 C 9.941406 17.390625 9.046875 16.652344 8.398438 15.429688 C 7.746094 14.210938 7.339844 12.511719 7.339844 10.632812 C 7.339844 8.75 7.746094 7.054688 8.398438 5.835938 C 9.046875 4.613281 9.941406 3.875 10.914062 3.875 Z M 10.914062 3.875 "/>
</g>
</svg>

<svg xmlns="http://www.w3.org/2000/svg" width="22pt" height="22pt" viewBox="0 0 22 22"><defs><radialGradient id="a" gradientUnits="userSpaceOnUse" cx="450.909" cy="189.579" fx="450.909" fy="189.579" r="21.167" gradientTransform="matrix(0 -.05372 -.09669 0 30.61 43.722)"><stop offset="0" stop-opacity=".314"/><stop offset=".222" stop-opacity=".275"/><stop offset="1" stop-opacity="0"/></radialGradient><radialGradient id="b" gradientUnits="userSpaceOnUse" cx="450.909" cy="189.579" fx="450.909" fy="189.579" r="21.167" gradientTransform="matrix(0 .05372 .09669 0 -8.78 -5.175)"><stop offset="0" stop-opacity=".314"/><stop offset=".222" stop-opacity=".275"/><stop offset="1" stop-opacity="0"/></radialGradient><radialGradient id="c" gradientUnits="userSpaceOnUse" cx="450.909" cy="189.579" fx="450.909" fy="189.579" r="21.167" gradientTransform="matrix(0 -.05372 .09669 0 -8.78 43.722)"><stop offset="0" stop-opacity=".314"/><stop offset=".222" stop-opacity=".275"/><stop offset="1" stop-opacity="0"/></radialGradient><radialGradient id="d" gradientUnits="userSpaceOnUse" cx="450.909" cy="189.579" fx="450.909" fy="189.579" r="21.167" gradientTransform="matrix(0 .05372 -.09669 0 30.61 -5.175)"><stop offset="0" stop-opacity=".314"/><stop offset=".222" stop-opacity=".275"/><stop offset="1" stop-opacity="0"/></radialGradient><linearGradient id="e" gradientUnits="userSpaceOnUse" x1="255.323" y1="233.5" x2="255.323" y2="254.667" gradientTransform="matrix(.00919 0 0 .04297 8.57 9.24)"><stop offset="0" stop-opacity=".275"/><stop offset="1" stop-opacity="0"/></linearGradient><linearGradient id="f" gradientUnits="userSpaceOnUse" x1="960" y1="1695.118" x2="960" y2="175.118" gradientTransform="rotate(.24) scale(.01137)"><stop offset="0" stop-color="#1e88e5"/><stop offset="1" stop-color="#2196f3"/></linearGradient></defs><path d="M12.508 19.273h1.816v-.91h-1.816zm0 0" fill="url(#a)"/><path d="M9.324 19.273h-1.82v.91h1.82zm0 0" fill="url(#b)"/><path d="M9.324 19.273h-1.82v-.91h1.82zm0 0" fill="url(#c)"/><path d="M12.508 19.273h1.816v.91h-1.816zm0 0" fill="url(#d)"/><path d="M9.324 19.047h3.184v1.137H9.324zm0 0" fill="url(#e)"/><path d="M10.914 1.992c-4.031 0-7.277 3.852-7.277 8.64 0 4.786 3.246 8.641 7.277 8.641 4.031 0 7.277-3.855 7.277-8.64 0-4.79-3.246-8.64-7.277-8.64zm0 1.817c2.016 0 3.64 3.043 3.64 6.824 0 3.777-1.624 6.82-3.64 6.82s-3.637-3.043-3.637-6.82c0-3.781 1.621-6.824 3.637-6.824zm0 0" fill="url(#f)"/><path d="M10.914 3.621c-2.016 0-3.637 3.043-3.637 6.82v.094c.028-3.734 1.641-6.726 3.637-6.726 2 0 3.613 2.992 3.64 6.726v-.094c0-3.777-1.624-6.82-3.64-6.82zm-7.273 6.914c-.004.035-.004.067-.004.098 0 4.785 3.246 8.64 7.277 8.64 4.031 0 7.277-3.855 7.277-8.64v-.098c-.043 4.746-3.273 8.547-7.277 8.547s-7.234-3.8-7.273-8.547zm0 0" fill-opacity=".196"/><path d="M10.914 1.992c-4.031 0-7.277 3.852-7.277 8.64 0 .04 0 .075.004.114.05-4.734 3.273-8.527 7.273-8.527 4 0 7.227 3.793 7.277 8.527v-.113c0-4.79-3.246-8.64-7.277-8.64zm-3.637 8.754v.113c0 3.782 1.621 6.82 3.637 6.82s3.64-3.038 3.64-6.82v-.113c-.034 3.727-1.644 6.707-3.64 6.707-1.996 0-3.605-2.98-3.637-6.707zm0 0" fill="#fff" fill-opacity=".392"/><path d="M10.914 1.926c-4.07 0-7.34 3.89-7.34 8.707 0 4.816 3.27 8.703 7.34 8.703 4.074 0 7.344-3.887 7.344-8.703 0-4.817-3.27-8.707-7.344-8.707zm0 .129c3.992 0 7.215 3.82 7.215 8.578 0 4.758-3.223 8.574-7.215 8.574-3.988 0-7.21-3.816-7.21-8.574s3.222-8.578 7.21-8.578zm0 1.691c-1.039 0-1.969.781-2.633 2.027-.664 1.247-1.07 2.961-1.07 4.86 0 1.898.406 3.613 1.07 4.86.664 1.241 1.594 2.027 2.633 2.027 1.043 0 1.969-.786 2.633-2.028.664-1.246 1.07-2.96 1.07-4.86 0-1.898-.406-3.612-1.07-4.859-.664-1.246-1.59-2.027-2.633-2.027zm0 .129c.977 0 1.867.738 2.52 1.96.652 1.22 1.054 2.915 1.054 4.798 0 1.879-.402 3.578-1.054 4.797-.653 1.222-1.543 1.96-2.52 1.96-.973 0-1.867-.738-2.516-1.96-.652-1.22-1.058-2.918-1.058-4.797 0-1.883.406-3.578 1.058-4.797.649-1.223 1.543-1.961 2.516-1.961zm0 0" fill="#212121"/></svg>
